;FLAVOR:Marlin
;TIME:1439
;Filament used: 1.09727m
;Layer height: 0.15
;Generated with Cura_SteamEngine 3.5.1
M82 ;absolute extrusion mode
; Ender 3 Custom Start G-code
M104 S200 ; Set Extruder temperature
M140 S60 ; Set Heat Bed temperature
M190 S60 ; Wait for Heat Bed temperature
M109 S200 ; Wait for Extruder temperature
G28 ; Home all axes
G92 E0 ; Reset Extruder
G1 Z5.0 F3000 ; Move Z Axis up little to prevent scratching of Heat Bed
G1 X0.1 Y20 Z0.3 F5000.0 ; Move to start position
G1 X0.1 Y200.0 Z0.3 F1500.0 E15 ; Draw the first line
G1 X0.4 Y200.0 Z0.3 F5000.0 ; Move to side a little
G1 X0.4 Y20 Z0.3 F1500.0 E30 ; Draw the second line
G92 E0 ; Reset Extruder
G1 Z5.0 F3000 ; Move Z Axis up little to prevent scratching of Heat Bed
G92 E0
G1 F2400 E-5
;LAYER_COUNT:32
;LAYER:0
M107
M204 S5000
M205 X30 Y30
G0 F3600 X89.477 Y91.25 Z0.2
M204 S500
M205 X20 Y20
;TYPE:SKIRT
G1 F2400 E0
G1 F1800 X90.069 Y90.728 E0.02625
G1 X90.449 Y90.455 E0.04181
G1 X90.574 Y90.269 E0.04927
G1 X91.077 Y89.66 E0.07554
G1 X91.83 Y88.94 E0.11019
G1 X92.439 Y88.431 E0.13659
G1 X93.07 Y87.956 E0.16286
G1 X93.745 Y87.547 E0.18911
G1 X94.128 Y87.366 E0.2032
G1 X94.191 Y87.297 E0.2063
G1 X94.783 Y86.774 E0.23258
G1 X95.756 Y86.11 E0.27176
G1 X96.443 Y85.714 E0.29813
G1 X97.146 Y85.355 E0.32439
G1 X97.882 Y85.069 E0.35065
G1 X98.301 Y84.953 E0.36511
G1 X98.369 Y84.901 E0.36796
G1 X99.042 Y84.487 E0.39424
G1 X100.108 Y84.005 E0.43315
G1 X100.853 Y83.733 E0.45953
G1 X101.607 Y83.5 E0.48577
G1 X102.382 Y83.345 E0.51206
G1 X102.832 Y83.301 E0.5271
G1 X102.905 Y83.263 E0.52984
G1 X103.639 Y82.973 E0.55609
G1 X104.77 Y82.683 E0.59492
G1 X105.552 Y82.544 E0.62134
G1 X106.335 Y82.446 E0.64758
G1 X107.125 Y82.427 E0.67387
G1 X107.583 Y82.463 E0.68915
G1 X108.174 Y82.321 E0.70936
G1 X108.956 Y82.216 E0.73561
G1 X109.602 Y82.189 E0.75711
G1 X110.397 Y82.189 E0.78355
G1 X111.186 Y82.229 E0.80983
G1 X111.966 Y82.348 E0.83607
G1 X112.402 Y82.461 E0.85105
G1 X113.019 Y82.424 E0.87161
G1 X113.808 Y82.458 E0.89788
G1 X114.451 Y82.545 E0.91946
G1 X115.232 Y82.684 E0.94584
G1 X116.001 Y82.861 E0.97209
G1 X116.749 Y83.116 E0.99837
G1 X117.134 Y83.292 E1.01245
G1 X117.225 Y83.296 E1.01548
G1 X118.006 Y83.412 E1.04174
G1 X118.771 Y83.607 E1.068
G1 X119.147 Y83.733 E1.08119
G1 X119.892 Y84.005 E1.10757
G1 X120.619 Y84.313 E1.13383
G1 X121.311 Y84.693 E1.16009
G1 X121.668 Y84.939 E1.17451
G1 X121.75 Y84.957 E1.1773
G1 X122.499 Y85.206 E1.20355
G1 X123.557 Y85.714 E1.24259
G1 X124.244 Y86.11 E1.26896
G1 X124.908 Y86.539 E1.29525
G1 X125.524 Y87.032 E1.3215
G1 X125.844 Y87.346 E1.33641
G1 X125.921 Y87.378 E1.33918
G1 X126.615 Y87.754 E1.36543
G1 X127.561 Y88.431 E1.40412
G1 X128.17 Y88.94 E1.43052
G1 X128.75 Y89.477 E1.45681
G1 X129.272 Y90.069 E1.48306
G1 X129.537 Y90.438 E1.49817
G1 X129.605 Y90.482 E1.50087
G1 X130.224 Y90.973 E1.52715
G1 X130.79 Y91.524 E1.55342
G1 X131.06 Y91.83 E1.56699
G1 X131.569 Y92.439 E1.59339
G1 X132.044 Y93.07 E1.61966
G1 X132.453 Y93.745 E1.64591
G1 X132.635 Y94.129 E1.66004
G1 X132.698 Y94.187 E1.66289
G1 X133.222 Y94.778 E1.68916
G1 X133.684 Y95.418 E1.71542
G1 X133.89 Y95.756 E1.72858
G1 X134.286 Y96.443 E1.75495
G1 X134.645 Y97.146 E1.78121
G1 X134.931 Y97.882 E1.80747
G1 X135.047 Y98.301 E1.82193
G1 X135.099 Y98.369 E1.82478
G1 X135.513 Y99.042 E1.85106
G1 X135.995 Y100.108 E1.88997
G1 X136.267 Y100.853 E1.91635
G1 X136.5 Y101.607 E1.9426
G1 X136.655 Y102.382 E1.96888
G1 X136.699 Y102.832 E1.98392
G1 X136.737 Y102.905 E1.98666
G1 X137.027 Y103.639 E2.01291
G1 X137.316 Y104.768 E2.05167
G1 X137.455 Y105.549 E2.07806
G1 X137.554 Y106.333 E2.10434
G1 X137.573 Y107.122 E2.13059
G1 X137.537 Y107.582 E2.14593
G1 X137.68 Y108.18 E2.16638
G1 X137.785 Y108.963 E2.19266
G1 X137.811 Y109.603 E2.21396
G1 X137.811 Y110.397 E2.24037
G1 X137.771 Y111.186 E2.26665
G1 X137.652 Y111.966 E2.29289
G1 X137.54 Y112.401 E2.30783
G1 X137.576 Y113.013 E2.32822
G1 X137.543 Y113.802 E2.35449
G1 X137.456 Y114.448 E2.37617
G1 X137.317 Y115.23 E2.40259
G1 X137.139 Y116 E2.42887
G1 X136.885 Y116.747 E2.45511
G1 X136.708 Y117.133 E2.46924
G1 X136.704 Y117.225 E2.4723
G1 X136.588 Y118.006 E2.49856
G1 X136.393 Y118.771 E2.52482
G1 X136.267 Y119.147 E2.53801
G1 X135.995 Y119.892 E2.56439
G1 X135.687 Y120.619 E2.59065
G1 X135.307 Y121.311 E2.6169
G1 X135.061 Y121.668 E2.63132
G1 X135.043 Y121.75 E2.63412
G1 X134.794 Y122.499 E2.66037
G1 X134.286 Y123.557 E2.6994
G1 X133.89 Y124.244 E2.72578
G1 X133.461 Y124.908 E2.75207
G1 X132.968 Y125.524 E2.77831
G1 X132.654 Y125.844 E2.79323
G1 X132.622 Y125.921 E2.796
G1 X132.246 Y126.615 E2.82225
G1 X131.569 Y127.561 E2.86094
G1 X131.06 Y128.17 E2.88734
G1 X130.523 Y128.75 E2.91363
G1 X129.931 Y129.272 E2.93988
G1 X129.553 Y129.543 E2.95535
G1 X129.189 Y130.033 E2.97565
G1 X128.657 Y130.617 E3.00193
G1 X128.17 Y131.06 E3.02383
G1 X127.561 Y131.569 E3.05022
G1 X126.93 Y132.044 E3.07649
G1 X126.255 Y132.453 E3.10274
G1 X125.871 Y132.635 E3.11688
G1 X125.813 Y132.698 E3.11973
G1 X125.222 Y133.222 E3.146
G1 X124.252 Y133.885 E3.18507
G1 X123.565 Y134.282 E3.21146
G1 X122.862 Y134.642 E3.23773
G1 X122.126 Y134.93 E3.26402
G1 X121.696 Y135.049 E3.27886
G1 X121.631 Y135.099 E3.28159
G1 X120.958 Y135.513 E3.30787
G1 X119.892 Y135.995 E3.34678
G1 X119.147 Y136.267 E3.37316
G1 X118.393 Y136.5 E3.39941
G1 X117.618 Y136.655 E3.42569
G1 X117.168 Y136.699 E3.44073
G1 X117.095 Y136.737 E3.44347
G1 X116.361 Y137.027 E3.46972
G1 X115.232 Y137.316 E3.50848
G1 X114.451 Y137.455 E3.53486
G1 X113.667 Y137.554 E3.56115
G1 X112.878 Y137.573 E3.5874
G1 X112.418 Y137.537 E3.60274
G1 X111.82 Y137.68 E3.62319
G1 X111.037 Y137.785 E3.64947
G1 X110.397 Y137.811 E3.67077
G1 X109.603 Y137.811 E3.69718
G1 X108.814 Y137.771 E3.72346
G1 X108.034 Y137.652 E3.7497
G1 X107.599 Y137.54 E3.76464
G1 X106.987 Y137.576 E3.78503
G1 X106.198 Y137.543 E3.8113
G1 X105.552 Y137.456 E3.83298
G1 X104.77 Y137.317 E3.85939
G1 X104 Y137.139 E3.88568
G1 X103.253 Y136.885 E3.91192
G1 X102.867 Y136.708 E3.92605
G1 X102.775 Y136.704 E3.92911
G1 X101.994 Y136.588 E3.95537
G1 X101.229 Y136.393 E3.98163
G1 X100.853 Y136.267 E3.99482
G1 X100.108 Y135.995 E4.0212
G1 X99.381 Y135.687 E4.04746
G1 X98.689 Y135.307 E4.07371
G1 X98.335 Y135.063 E4.08801
G1 X98.253 Y135.045 E4.09081
G1 X97.503 Y134.796 E4.11709
G1 X96.783 Y134.472 E4.14335
G1 X96.435 Y134.282 E4.15654
G1 X95.748 Y133.885 E4.18293
G1 X95.085 Y133.456 E4.20919
G1 X94.469 Y132.962 E4.23546
G1 X94.156 Y132.654 E4.25006
G1 X94.079 Y132.622 E4.25283
G1 X93.385 Y132.246 E4.27909
G1 X92.439 Y131.569 E4.31778
G1 X91.83 Y131.06 E4.34418
G1 X91.25 Y130.523 E4.37047
G1 X90.728 Y129.931 E4.39672
G1 X90.457 Y129.553 E4.41219
G1 X89.967 Y129.189 E4.43249
G1 X89.383 Y128.657 E4.45876
G1 X88.94 Y128.17 E4.48066
G1 X88.431 Y127.561 E4.50706
G1 X87.956 Y126.93 E4.53333
G1 X87.547 Y126.255 E4.55958
G1 X87.365 Y125.871 E4.57371
G1 X87.302 Y125.813 E4.57656
G1 X86.778 Y125.222 E4.60283
G1 X86.115 Y124.252 E4.64191
G1 X85.718 Y123.565 E4.6683
G1 X85.358 Y122.862 E4.69457
G1 X85.07 Y122.126 E4.72086
G1 X84.951 Y121.696 E4.7357
G1 X84.901 Y121.631 E4.73842
G1 X84.487 Y120.958 E4.7647
G1 X84.005 Y119.892 E4.80362
G1 X83.733 Y119.147 E4.82999
G1 X83.5 Y118.393 E4.85624
G1 X83.345 Y117.618 E4.88253
G1 X83.301 Y117.168 E4.89757
G1 X83.263 Y117.095 E4.90031
G1 X82.973 Y116.361 E4.92655
G1 X82.683 Y115.23 E4.96539
G1 X82.544 Y114.448 E4.99181
G1 X82.446 Y113.665 E5.01805
G1 X82.427 Y112.875 E5.04433
G1 X82.462 Y112.418 E5.05958
G1 X82.32 Y111.82 E5.08002
G1 X82.215 Y111.037 E5.1063
G1 X82.189 Y110.397 E5.1276
G1 X82.189 Y109.603 E5.15401
G1 X82.229 Y108.814 E5.18029
G1 X82.348 Y108.034 E5.20653
G1 X82.461 Y107.598 E5.22151
G1 X82.424 Y106.98 E5.2421
G1 X82.458 Y106.191 E5.26837
G1 X82.545 Y105.549 E5.28992
G1 X82.684 Y104.768 E5.3163
G1 X82.861 Y103.999 E5.34255
G1 X83.116 Y103.251 E5.36883
G1 X83.292 Y102.866 E5.38291
G1 X83.296 Y102.775 E5.38594
G1 X83.412 Y101.994 E5.4122
G1 X83.607 Y101.229 E5.43846
G1 X83.733 Y100.853 E5.45165
G1 X84.005 Y100.108 E5.47803
G1 X84.313 Y99.381 E5.50429
G1 X84.693 Y98.689 E5.53055
G1 X84.937 Y98.335 E5.54485
G1 X84.955 Y98.253 E5.54764
G1 X85.204 Y97.503 E5.57392
G1 X85.528 Y96.783 E5.60018
G1 X85.718 Y96.435 E5.61337
G1 X86.115 Y95.748 E5.63976
G1 X86.544 Y95.085 E5.66602
G1 X87.038 Y94.469 E5.69229
G1 X87.346 Y94.156 E5.70689
G1 X87.378 Y94.079 E5.70967
G1 X87.754 Y93.385 E5.73592
G1 X88.431 Y92.439 E5.77461
G1 X88.94 Y91.83 E5.80101
G1 X89.477 Y91.25 E5.8273
M204 S5000
M205 X30 Y30
G0 F3600 X89.77 Y91.523
M204 S500
M205 X20 Y20
G1 F1800 X90.349 Y91.016 E5.8529
G1 X90.74 Y90.741 E5.86879
G1 X91.004 Y90.365 E5.88408
G1 X91.509 Y89.784 E5.90968
G1 X92.086 Y89.247 E5.9359
G1 X92.695 Y88.738 E5.96229
G1 X93.31 Y88.276 E5.98788
G1 X93.97 Y87.881 E6.01346
G1 X94.377 Y87.691 E6.0284
G1 X94.616 Y87.445 E6.03981
G1 X95.206 Y86.952 E6.06538
G1 X95.955 Y86.457 E6.09524
G1 X96.642 Y86.061 E6.12161
G1 X97.328 Y85.712 E6.14721
G1 X98.046 Y85.436 E6.1728
G1 X98.491 Y85.316 E6.18813
G1 X98.762 Y85.12 E6.19925
G1 X99.429 Y84.736 E6.22485
G1 X100.245 Y84.381 E6.25445
G1 X100.99 Y84.109 E6.28083
G1 X101.725 Y83.883 E6.3064
G1 X102.48 Y83.735 E6.33199
G1 X102.956 Y83.692 E6.34789
G1 X103.253 Y83.547 E6.35888
G1 X103.976 Y83.285 E6.38446
G1 X104.84 Y83.077 E6.41401
G1 X105.622 Y82.938 E6.44043
G1 X106.385 Y82.843 E6.46601
G1 X107.154 Y82.828 E6.49159
G1 X107.611 Y82.866 E6.50684
G1 X107.692 Y82.84 E6.50967
G1 X108.444 Y82.68 E6.53524
G1 X109.209 Y82.599 E6.56083
G1 X109.602 Y82.589 E6.5739
G1 X110.397 Y82.589 E6.60034
G1 X111.165 Y82.629 E6.62592
G1 X111.925 Y82.748 E6.65151
G1 X112.36 Y82.864 E6.66648
G1 X112.453 Y82.851 E6.66961
G1 X113.222 Y82.825 E6.6952
G1 X113.989 Y82.88 E6.72077
G1 X114.381 Y82.938 E6.73395
G1 X115.162 Y83.077 E6.76034
G1 X115.911 Y83.251 E6.78591
G1 X116.638 Y83.502 E6.81149
G1 X117.046 Y83.692 E6.82646
G1 X117.385 Y83.717 E6.83777
G1 X118.142 Y83.851 E6.86334
G1 X119.01 Y84.109 E6.89346
G1 X119.755 Y84.381 E6.91983
G1 X120.463 Y84.682 E6.94542
G1 X121.135 Y85.055 E6.97099
G1 X121.51 Y85.317 E6.9862
G1 X121.835 Y85.398 E6.99734
G1 X122.557 Y85.662 E7.02291
G1 X123.358 Y86.061 E7.05267
G1 X124.045 Y86.457 E7.07905
G1 X124.69 Y86.875 E7.10461
G1 X125.289 Y87.358 E7.1302
G1 X125.623 Y87.69 E7.14587
G1 X125.928 Y87.827 E7.15699
G1 X126.593 Y88.212 E7.18255
G1 X127.305 Y88.738 E7.21199
G1 X127.914 Y89.247 E7.23839
G1 X128.477 Y89.77 E7.26394
G1 X128.984 Y90.349 E7.28954
G1 X129.26 Y90.74 E7.30546
G1 X129.534 Y90.926 E7.31647
G1 X130.123 Y91.421 E7.34206
G1 X130.753 Y92.086 E7.37253
G1 X131.262 Y92.695 E7.39893
G1 X131.724 Y93.31 E7.42451
G1 X132.119 Y93.97 E7.4501
G1 X132.309 Y94.377 E7.46504
G1 X132.551 Y94.612 E7.47626
G1 X133.045 Y95.201 E7.50182
G1 X133.543 Y95.955 E7.53188
G1 X133.939 Y96.642 E7.55825
G1 X134.288 Y97.328 E7.58385
G1 X134.564 Y98.046 E7.60944
G1 X134.684 Y98.491 E7.62477
G1 X134.88 Y98.762 E7.63589
G1 X135.264 Y99.429 E7.66149
G1 X135.619 Y100.245 E7.69109
G1 X135.891 Y100.99 E7.71746
G1 X136.117 Y101.725 E7.74304
G1 X136.265 Y102.48 E7.76863
G1 X136.308 Y102.956 E7.78453
G1 X136.453 Y103.253 E7.79552
G1 X136.715 Y103.976 E7.8211
G1 X136.923 Y104.838 E7.85059
G1 X137.062 Y105.619 E7.87697
G1 X137.157 Y106.383 E7.90258
G1 X137.172 Y107.152 E7.92816
G1 X137.134 Y107.611 E7.94348
G1 X137.162 Y107.698 E7.94652
G1 X137.321 Y108.45 E7.97208
G1 X137.401 Y109.215 E7.99767
G1 X137.411 Y109.603 E8.01058
G1 X137.411 Y110.397 E8.03698
G1 X137.371 Y111.165 E8.06256
G1 X137.252 Y111.925 E8.08815
G1 X137.137 Y112.358 E8.10305
G1 X137.149 Y112.447 E8.10604
G1 X137.175 Y113.216 E8.13163
G1 X137.121 Y113.983 E8.1572
G1 X137.062 Y114.378 E8.17049
G1 X136.923 Y115.16 E8.1969
G1 X136.749 Y115.909 E8.22248
G1 X136.498 Y116.636 E8.24806
G1 X136.308 Y117.046 E8.26309
G1 X136.283 Y117.385 E8.27439
G1 X136.149 Y118.142 E8.29996
G1 X135.891 Y119.01 E8.33008
G1 X135.619 Y119.755 E8.35646
G1 X135.318 Y120.463 E8.38205
G1 X134.945 Y121.135 E8.40761
G1 X134.683 Y121.51 E8.42283
G1 X134.602 Y121.835 E8.43397
G1 X134.338 Y122.557 E8.45954
G1 X133.939 Y123.358 E8.4893
G1 X133.543 Y124.045 E8.51567
G1 X133.125 Y124.69 E8.54124
G1 X132.642 Y125.289 E8.56683
G1 X132.31 Y125.623 E8.58249
G1 X132.173 Y125.928 E8.59361
G1 X131.788 Y126.593 E8.61917
G1 X131.262 Y127.305 E8.64861
G1 X130.753 Y127.914 E8.67501
G1 X130.23 Y128.477 E8.70057
G1 X129.651 Y128.984 E8.72617
G1 X129.272 Y129.251 E8.74159
G1 X129.225 Y129.326 E8.74453
G1 X128.751 Y129.931 E8.77009
G1 X128.217 Y130.485 E8.79569
G1 X127.914 Y130.753 E8.80914
G1 X127.305 Y131.262 E8.83554
G1 X126.69 Y131.724 E8.86112
G1 X126.03 Y132.119 E8.88671
G1 X125.623 Y132.309 E8.90164
G1 X125.388 Y132.551 E8.91286
G1 X124.799 Y133.045 E8.93843
G1 X124.052 Y133.539 E8.96822
G1 X123.365 Y133.936 E8.99461
G1 X122.679 Y134.286 E9.02022
G1 X121.962 Y134.563 E9.04579
G1 X121.507 Y134.686 E9.06147
G1 X121.238 Y134.88 E9.0725
G1 X120.571 Y135.264 E9.0981
G1 X119.755 Y135.619 E9.12769
G1 X119.01 Y135.891 E9.15407
G1 X118.275 Y136.117 E9.17965
G1 X117.52 Y136.265 E9.20524
G1 X117.044 Y136.308 E9.22113
G1 X116.747 Y136.453 E9.23213
G1 X116.024 Y136.715 E9.2577
G1 X115.162 Y136.923 E9.2872
G1 X114.381 Y137.062 E9.31358
G1 X113.617 Y137.157 E9.33919
G1 X112.848 Y137.172 E9.36477
G1 X112.389 Y137.134 E9.38009
G1 X112.302 Y137.162 E9.38313
G1 X111.55 Y137.321 E9.40869
G1 X110.785 Y137.401 E9.43427
G1 X110.397 Y137.411 E9.44718
G1 X109.603 Y137.411 E9.47359
G1 X108.835 Y137.371 E9.49917
G1 X108.075 Y137.252 E9.52476
G1 X107.642 Y137.137 E9.53966
G1 X107.553 Y137.149 E9.54264
G1 X106.784 Y137.175 E9.56824
G1 X106.017 Y137.121 E9.59381
G1 X105.622 Y137.062 E9.60709
G1 X104.84 Y136.923 E9.63351
G1 X104.091 Y136.749 E9.65909
G1 X103.364 Y136.498 E9.68467
G1 X102.954 Y136.308 E9.6997
G1 X102.615 Y136.283 E9.711
G1 X101.858 Y136.149 E9.73657
G1 X100.99 Y135.891 E9.76669
G1 X100.245 Y135.619 E9.79307
G1 X99.537 Y135.318 E9.81866
G1 X98.865 Y134.945 E9.84422
G1 X98.493 Y134.685 E9.85931
G1 X98.168 Y134.604 E9.87045
G1 X97.445 Y134.34 E9.89605
G1 X96.635 Y133.936 E9.92616
G1 X95.948 Y133.539 E9.95255
G1 X95.303 Y133.12 E9.97813
G1 X94.705 Y132.637 E10.0037
G1 X94.378 Y132.31 E10.01908
G1 X94.072 Y132.173 E10.03023
G1 X93.407 Y131.788 E10.05579
G1 X92.695 Y131.262 E10.08523
G1 X92.086 Y130.753 E10.11163
G1 X91.523 Y130.23 E10.13719
G1 X91.016 Y129.651 E10.16279
G1 X90.749 Y129.272 E10.17821
G1 X90.674 Y129.225 E10.18115
G1 X90.069 Y128.751 E10.20671
G1 X89.515 Y128.217 E10.2323
G1 X89.247 Y127.914 E10.24576
G1 X88.738 Y127.305 E10.27216
G1 X88.276 Y126.69 E10.29774
G1 X87.881 Y126.03 E10.32332
G1 X87.691 Y125.623 E10.33826
G1 X87.449 Y125.388 E10.34948
G1 X86.955 Y124.799 E10.37505
G1 X86.461 Y124.052 E10.40484
G1 X86.064 Y123.365 E10.43123
G1 X85.714 Y122.679 E10.45684
G1 X85.437 Y121.962 E10.48241
G1 X85.314 Y121.506 E10.49812
G1 X85.12 Y121.238 E10.50912
G1 X84.736 Y120.571 E10.53472
G1 X84.381 Y119.755 E10.56432
G1 X84.109 Y119.01 E10.5907
G1 X83.883 Y118.275 E10.61627
G1 X83.735 Y117.52 E10.64186
G1 X83.692 Y117.044 E10.65776
G1 X83.547 Y116.747 E10.66875
G1 X83.285 Y116.024 E10.69433
G1 X83.077 Y115.16 E10.72388
G1 X82.938 Y114.378 E10.7503
G1 X82.843 Y113.615 E10.77587
G1 X82.828 Y112.846 E10.80146
G1 X82.866 Y112.389 E10.81671
G1 X82.838 Y112.302 E10.81975
G1 X82.679 Y111.55 E10.84531
G1 X82.599 Y110.785 E10.8709
G1 X82.589 Y110.397 E10.88381
G1 X82.589 Y109.603 E10.91021
G1 X82.629 Y108.835 E10.93579
G1 X82.748 Y108.075 E10.96138
G1 X82.864 Y107.64 E10.97635
G1 X82.851 Y107.546 E10.97951
G1 X82.825 Y106.777 E11.0051
G1 X82.88 Y106.01 E11.03068
G1 X82.938 Y105.619 E11.04382
G1 X83.077 Y104.838 E11.07021
G1 X83.251 Y104.089 E11.09578
G1 X83.502 Y103.362 E11.12136
G1 X83.692 Y102.954 E11.13633
G1 X83.717 Y102.615 E11.14764
G1 X83.851 Y101.858 E11.17321
G1 X84.109 Y100.99 E11.20333
G1 X84.381 Y100.245 E11.2297
G1 X84.682 Y99.537 E11.25529
G1 X85.055 Y98.865 E11.28086
G1 X85.315 Y98.493 E11.29595
G1 X85.396 Y98.168 E11.30709
G1 X85.66 Y97.445 E11.33269
G1 X86.064 Y96.635 E11.3628
G1 X86.461 Y95.948 E11.38919
G1 X86.88 Y95.303 E11.41477
G1 X87.363 Y94.705 E11.44034
G1 X87.69 Y94.378 E11.45572
